X:1
T:A Northern Jigg.
L:1/4
M:6/4
I:linebreak $
K:D
V:1 treble 
V:1
 A | B3/2 c/ d c3/2 B/ A | d2 B A F2 | E3- E2 A | B3/2 c/ d c3/2 B/ A | d2 B A F2 | D3- D2 :: %7
 (A/4B/4)c/ | B2 G A F2 |$ B2 G A F2 | E3- E2 (A/4B/4)c/ | B2 G A F2 | d2 B A F2 | D3- D2 |] %14
